GeoFa/BÆNK.svg

<?xml version="1.0" encoding="UTF-8"?>
<svg id="Cirkel" width="15.591" height="15.591" version="1.1" xmlns="http://www.w3.org/2000/svg">
 <defs>
  <style>.cls-1{fill:#fff;}.cls-2{fill:#031E3A;}</style>
 </defs>
 <rect class="cls-2" width="15.591" height="15.591" rx="7.7948" ry="7.7948"/>
 <g transform="translate(-.00472)">
  <path class="cls-1" d="m3.0898 9.9666h0.48863v1.3892c0 0.06582 0.023 0.12395 0.05449 0.17662 0.06138 0.1026 0.1687 0.17479 0.29692 0.17479 0.12828 0 0.2356-0.07219 0.29692-0.17479 0.03149-0.05267 0.05449-0.1108 0.05449-0.17662v-1.3892h7.0288v1.3892c0 0.06582 0.023 0.12395 0.05449 0.17662 0.06138 0.1026 0.1687 0.17479 0.29692 0.17479 0.12828 0 0.2356-0.07219 0.29692-0.17479 0.03149-0.05267 0.05449-0.1108 0.05449-0.17662v-1.3892h0.49734v-0.75025h-9.4204z"/>
  <path class="cls-1" d="m11.484 5.1192v-0.31765c0-0.1941-0.15731-0.35141-0.35141-0.35141-0.19404 0-0.35135 0.15731-0.35135 0.35141v0.31765h-5.9712v-0.31765c0-0.1941-0.15737-0.35141-0.35141-0.35141-0.1941 0-0.35141 0.15731-0.35141 0.35141v0.31765h-1.0174v1.0533h9.4204v-1.0533z"/>
  <polygon class="cls-1" points="4.1072 6.5865 3.0898 6.5865 3.0898 7.6399 4.1072 7.6399 4.1072 8.8025 4.81 8.8025 4.81 7.6399 10.781 7.6399 10.781 8.8025 11.484 8.8025 11.484 7.6399 12.51 7.6399 12.51 6.5865 11.484 6.5865 10.781 6.5865 4.81 6.5865"/>
 </g>
</svg>

<?xml version="1.0" encoding="UTF-8" standalone="no"?>
<svg
   id="Cirkel"
   version="1.1"
   width="15.59055"
   height="15.59055"
   xmlns="http://www.w3.org/2000/svg"
   xmlns:svg="http://www.w3.org/2000/svg">
  <defs
     id="defs1">
    <style
       id="style1">.cls-1{fill:#fff;}.cls-2{fill:#031E3A;}</style>
  </defs>
  <rect
     class="cls-2"
     x="0"
     y="0"
     width="15.59055"
     height="15.59055"
     rx="7.7947798"
     ry="7.7947798"
     id="rect1" />
  <g
     id="g2"
     transform="translate(-0.00472)">
    <path
       class="cls-1"
       d="m 3.08979,9.96665 h 0.48863 v 1.38924 c 0,0.06582 0.023,0.12395 0.05449,0.17662 0.06138,0.1026 0.1687,0.17479 0.29692,0.17479 0.12828,0 0.2356,-0.07219 0.29692,-0.17479 0.03149,-0.05267 0.05449,-0.1108 0.05449,-0.17662 V 9.96665 h 7.02881 v 1.38924 c 0,0.06582 0.023,0.12395 0.05449,0.17662 0.06138,0.1026 0.1687,0.17479 0.29692,0.17479 0.12828,0 0.2356,-0.07219 0.29692,-0.17479 0.03149,-0.05267 0.05449,-0.1108 0.05449,-0.17662 V 9.96665 h 0.49734 V 9.2164 H 3.08979 Z"
       id="path1" />
    <path
       class="cls-1"
       d="M 11.48399,5.11923 V 4.80158 c 0,-0.1941 -0.15731,-0.35141 -0.35141,-0.35141 -0.19404,0 -0.35135,0.15731 -0.35135,0.35141 V 5.11923 H 4.81006 V 4.80158 c 0,-0.1941 -0.15737,-0.35141 -0.35141,-0.35141 -0.1941,0 -0.35141,0.15731 -0.35141,0.35141 V 5.11923 H 3.08985 v 1.05332 h 9.42036 V 5.11923 Z"
       id="path2" />
    <polygon
       class="cls-1"
       points="4.10723,6.58653 3.08984,6.58653 3.08984,7.63991 4.10723,7.63991 4.10723,8.80248 4.81005,8.80248 4.81005,7.63991 10.78122,7.63991 10.78122,8.80248 11.48399,8.80248 11.48399,7.63991 12.5102,7.63991 12.5102,6.58653 11.48399,6.58653 10.78122,6.58653 4.81005,6.58653 "
       id="polygon2" />
  </g>
</svg>
